src/img/icon-work.svg

<svg height="64" viewBox="0 0 64 64" width="64" xmlns="http://www.w3.org/2000/svg"><g fill="none" fill-rule="evenodd" transform="translate(1 2)"><path d="m52.9229493 40.3980771c-2.9591873-2.9591872-7.2416308-3.7734326-10.9408454-2.4667785l-20.916304-20.9138443c1.3090522-3.6989687.4948007-7.98135072-2.4643803-10.93838582-2.1185014-2.11850135-4.9143722-3.14174986-7.6911198-3.07448023-1.24657875.03122442-1.51805536 1.01119655-.6365404 1.89031343l2.6877721 2.6901702c2.5580906 2.55809052 2.5580906 5.16174492 0 7.72001992-2.5580905 2.5580905-5.16174484 2.5580905-7.72001985 0l-2.69016836-2.6901702c-.88151497-.881515-1.8614748-.6076895-1.89031343.6365403-.06725733 2.7742265.95597889 5.5724955 3.0744784 7.6886602 2.95918722 2.9591872 7.23917114 3.7734326 10.93838574 2.4667785l20.916304 20.9163039c-1.3090522 3.6989687-.4948007 7.9813507 2.4643804 10.9383858 2.1185013 2.1185001 4.9143722 3.141748 7.6911197 3.0744784 1.2465788-.0312256 1.5180554-1.0111965.6365404-1.8927115l-2.6901702-2.6901684c-2.5580905-2.5580905-2.5580905-5.1617448 0-7.7224794 2.5580905-2.5580906 5.1617449-2.5580906 7.7224795 0l2.6901702 2.6901702c.8815149.8815149 1.8614748.6076894 1.8903134-.6365404.0696554-2.7718284-.9559789-5.5676993-3.0720821-7.6862006z" stroke="#008943" stroke-width="3"/><path d="m50.1342151 14.644641c.2638479-.2638479.5334928-.4494106.8698437-.6088758l4.5289174-2.1108128c.7538299-.3508322 1.0989022-.6668677 1.5193131-1.3830358l3.7025695-6.32360555c.1942619-.3334339.1652696-.57118424-.1101797-.84661124l-2.8935904-2.89359044c-.2725471-.27254706-.5102974-.30153938-.8466112-.10727751l-6.3236056 3.70256957c-.7190554.42041826-1.0321739.765409-1.3830358 1.51931312l-2.1108128 4.52891735c-.1565704.3363287-.3450279.605981-.605981.8698437l-12.4586793 12.4497723 3.6561789 3.6561789z" stroke="#008943" stroke-width="3"/><path d="m16.1969231 35.776044c-.3296704.0334813-.5820726.1339318-.8138901.3683011l-11.95318685 11.947912c-3.69850483 3.6985055-3.36112022 6.7839561 0 10.1479128l.45071869.4532967c3.3636923 3.3636923 6.44914286 3.6985055 10.14791206 0l11.9531868-11.9531875c.2343759-.2343758.3348198-.4842066.3683011-.8138901.103022-1.0534286.4198154-2.6631428 1.6586374-4.0642417l-7.7472527-7.7472528c-1.401099 1.2388352-3.0108132 1.5530769-4.0642418 1.6612088zm-12.25978024 18.0105494c-.56146813-.5588967-.56146813-1.4706593 0-2.0295165l12.90857144-12.9085714c.2807341-.2807341.6464637-.4198154 1.0147912-.4198154.3683011 0 .734044.1416528 1.0147912.4198154.5614681.5614681.5614681 1.4706593 0 2.0295165l-12.90857143 12.9085714c-.56146813.5614681-1.47065934.5614681-2.02951648 0zm18.32241754-10.9615385c.3683011 0 .734044.1390814 1.0147912.4198154.5614682.5588967.5614682 1.4680879 0 2.0295165l-12.9112087 12.9085714c-.56146817.5614682-1.47065938.5614682-2.02951653 0-.56146813-.5614681-.56146813-1.4680879 0-2.0295164l12.90857143-12.9085715c.2833121-.280734.6516132-.4198154 1.0173626-.4198154z" fill="#008943"/></g></svg>

<?xml version="1.0" encoding="UTF-8"?>
<svg width="64px" height="64px" viewBox="0 0 64 64" version="1.1" xmlns="http://www.w3.org/2000/svg" xmlns:xlink="http://www.w3.org/1999/xlink">
    <!-- Generator: Sketch 56.2 (81672) - https://sketch.com -->
    <title>Group 4</title>
    <desc>Created with Sketch.</desc>
    <g id="Page-1" stroke="none" stroke-width="1" fill="none" fill-rule="evenodd">
        <g id="311-Approved-" transform="translate(-851.000000, -1197.000000)">
            <g id="How-It-Works" transform="translate(0.000000, 1083.000000)">
                <g id="Work" transform="translate(815.000000, 116.000000)">
                    <g id="Group-4" transform="translate(37.000000, 0.000000)">
                        <path d="M52.9229493,40.3980771 C49.963762,37.4388899 45.6813185,36.6246445 41.9821039,37.9312986 L21.0657999,17.0174543 C22.3748521,13.3184856 21.5606006,9.03610358 18.6014196,6.07906848 C16.4829182,3.96056713 13.6870474,2.93731862 10.9102998,3.00458825 C9.66372105,3.03581267 9.39224444,4.0157848 10.2737594,4.89490168 L12.9615315,7.58507188 C15.5196221,10.1431624 15.5196221,12.7468168 12.9615315,15.3050918 C10.403441,17.8631823 7.79978666,17.8631823 5.24151165,15.3050918 L2.55134329,12.6149216 C1.66982832,11.7334066 0.689868488,12.0072321 0.661029864,13.2514619 C0.593772534,16.0256884 1.61700875,18.8239574 3.73550826,20.9401221 C6.69469548,23.8993093 10.9746794,24.7135547 14.673894,23.4069006 L35.590198,44.3232045 C34.2811458,48.0221732 35.0953973,52.3045552 38.0545784,55.2615903 C40.1730797,57.3800904 42.9689506,58.4033383 45.7456981,58.3360687 C46.9922769,58.3048431 47.2637535,57.3248722 46.3822385,56.4433572 L43.6920683,53.7531888 C41.1339778,51.1950983 41.1339778,48.591444 43.6920683,46.0307094 C46.2501588,43.4726188 48.8538132,43.4726188 51.4145478,46.0307094 L54.104718,48.7208796 C54.9862329,49.6023945 55.9661928,49.328569 55.9950314,48.0843392 C56.0646868,45.3125108 55.0390525,42.5166399 52.9229493,40.3981386 L52.9229493,40.3980771 Z" id="Fill-1" stroke="#008943" stroke-width="3"></path>
                        <path d="M50.1342151,14.644641 C50.398063,14.3807931 50.6677079,14.1952304 51.0040588,14.0357652 L55.5329762,11.9249524 C56.2868061,11.5741202 56.6318784,11.2580847 57.0522893,10.5419166 L60.7548588,4.21831105 C60.9491207,3.88487715 60.9201284,3.64712681 60.6446791,3.37169981 L57.7510887,0.478109368 C57.4785416,0.205562305 57.2407913,0.176569989 56.9044775,0.370831863 L50.5808719,4.07340143 C49.8618165,4.49381969 49.548698,4.83881043 49.1978361,5.59271455 L47.0870233,10.1216319 C46.9304529,10.4579606 46.7419954,10.7276129 46.4810423,10.9914756 L34.022363,23.4412479 L37.6785419,27.0974268 L50.1342151,14.644641 Z" id="Fill-2" stroke="#008943" stroke-width="3"></path>
                        <path d="M16.1969231,35.776044 C15.8672527,35.8095253 15.6148505,35.9099758 15.383033,36.1443451 L3.42984615,48.0922571 C-0.268658681,51.7907626 0.0687259341,54.8762132 3.42984615,58.2401699 L3.88056484,58.6934666 C7.24425714,62.0571589 10.3297077,62.3919721 14.0284769,58.6934666 L25.9816637,46.7402791 C26.2160396,46.5059033 26.3164835,46.2560725 26.3499648,45.926389 C26.4529868,44.8729604 26.7697802,43.2632462 28.0086022,41.8621473 L20.2613495,34.1148945 C18.8602505,35.3537297 17.2505363,35.6679714 16.1971077,35.7761033 L16.1969231,35.776044 Z M3.93714286,53.7865934 C3.37567473,53.2276967 3.37567473,52.3159341 3.93714286,51.7570769 L16.8457143,38.8485055 C17.1264484,38.5677714 17.492178,38.4286901 17.8605055,38.4286901 C18.2288066,38.4286901 18.5945495,38.5703429 18.8752967,38.8485055 C19.4367648,39.4099736 19.4367648,40.3191648 18.8752967,40.878022 L5.96672527,53.7865934 C5.40525714,54.3480615 4.49606593,54.3480615 3.93720879,53.7865934 L3.93714286,53.7865934 Z M22.2595604,42.8250549 C22.6278615,42.8250549 22.9936044,42.9641363 23.2743516,43.2448703 C23.8358198,43.803767 23.8358198,44.7129582 23.2743516,45.2743868 L10.3631429,58.1829582 C9.80167473,58.7444264 8.89248352,58.7444264 8.33362637,58.1829582 C7.77215824,57.6214901 7.77215824,56.7148703 8.33362637,56.1534418 L21.2421978,43.2448703 C21.5255099,42.9641363 21.893811,42.8250549 22.2595604,42.8250549 Z" id="Fill-3" fill="#008943"></path>
                    </g>
                </g>
            </g>
        </g>
    </g>
</svg>
